public/assets/img/arrow_right_white.svg

<svg width="13" height="12" viewBox="0 0 13 12" fill="none" xmlns="http://www.w3.org/2000/svg">
<path d="M12.2959 7.23952L11.0061 7.28923L11.2494 2.67868L1.61173 11.9975L0.913545 11.2993L10.3918 1.82106L5.78122 2.06436L5.83092 0.774548L12.6561 0.414386L12.2959 7.23952Z" fill="#F6F6F6"/>
</svg>

<svg xmlns="http://www.w3.org/2000/svg" width="13" height="12" fill="none"><path fill="#F6F6F6" d="m12.296 7.24-1.29.05.243-4.611-9.637 9.319-.698-.699 9.478-9.478-4.61.243.049-1.29 6.825-.36z"/></svg>
